X:1
T:Brother Noah
M:4/4
L:1/4
K:F
 F3/4 G/4| A C z F3/4 G/4| A C z F| A A A A3/4 A/4| A A3/4 A/4 A| B3/4 A/4|\
 G3/4 G/4 G3/4 G/4 G G3/4 G/4| G3/4 G/4 G3/4 G/4 G G3/4 G/4| c3 G3/4 G/4|\
 c3| G3/4 G/4 c B A| G F3|
